X: 717
T: King County Breakdown
C:King Ganam and his Sons of the West
B: jims roots
M:2/4
L:1/8
Q: 1/4=100
K:E
V:1 
(E2 || "E"E)GBe gfeg | fegf ecBG | EGBe gfed | BGE[GB] "B7"[F2B](E2|
      "E"E)GBe gfeg | fegf ecBe | bgeg fgec | "B7"B[BG][BF][BG] "E"[E2B] :|
|:([A,2E] ||[K:A]"A"[A,E])[CE]EA cBAc | BAcB AFEC | A,CEA cBAc | "B7"B^dfd "E7"e2(c'2 |
"A"c')bac' ba"3"fe | afec BcAF | EFAB ca2f "E7"ecBc "A"A2 :|
% abcbook-tune_id 6298c25db6baf02110a2c286


% abcbook-boost 0
% abcbook-tablature 
% abcbook-transpose 
% abcbook-lastupdated 1654178399518
% abcbook-soundfonts 
% abcbook-repeats 1


